Papirus/22x22/apps/indicator-cpufreq.svg

<?xml version="1.0" encoding="UTF-8" standalone="no"?>
<svg xmlns="http://www.w3.org/2000/svg" height="22" width="22" version="1" xmlns:xlink="http://www.w3.org/1999/xlink">
 <defs>
  <filter id="filter3831" style="color-interpolation-filters:sRGB">
   <feGaussianBlur stdDeviation=".637"/>
  </filter>
  <clipPath id="clipPath3823">
   <path fill="#fff" d="m108.81 58c-1.56 0-2.81 1.254-2.81 2.812v24.375c0 1.559 1.25 2.813 2.81 2.813h24.375c1.57 0 2.82-1.254 2.82-2.812v-24.375c0-1.559-1.25-2.813-2.81-2.813h-24.375zm7.1875 4.5h10v8.75h5l-10 13.75-10-13.75h5v-8.75z"/>
  </clipPath>
  <linearGradient id="linearGradient3812" y2="50.069" gradientUnits="userSpaceOnUse" y1="64.205" gradientTransform="matrix(.625 0 0 .625 78.5 32.25)" x2="65.263" x1="65.263">
   <stop offset="0"/>
   <stop stop-opacity="0" offset="1"/>
  </linearGradient>
  <filter id="filter3806" style="color-interpolation-filters:sRGB">
   <feGaussianBlur stdDeviation="1.2"/>
  </filter>
  <linearGradient id="linearGradient3788" x1="70" xlink:href="#linearGradient3737" gradientUnits="userSpaceOnUse" y1="54" gradientTransform="translate(0,4)" x2="70" y2="75.095"/>
  <linearGradient id="linearGradient3773" y2="72" gradientUnits="userSpaceOnUse" y1="72" gradientTransform="matrix(.9375 0 0 .9375 -140.5 3.5)" x2="88" x1="56">
   <stop stop-color="#499119" offset="0"/>
   <stop stop-color="#8fd625" offset="1"/>
  </linearGradient>
  <linearGradient id="linearGradient3832" x1="65.263" xlink:href="#linearGradient3737" gradientUnits="userSpaceOnUse" y1="64.205" gradientTransform="matrix(.625 0 0 .625 28.5 31.25)" x2="65.263" y2="50.069"/>
  <filter id="filter3174" style="color-interpolation-filters:sRGB">
   <feGaussianBlur stdDeviation="1.71"/>
  </filter>
  <linearGradient id="linearGradient3737">
   <stop stop-color="#fff" offset="0"/>
   <stop stop-opacity="0" stop-color="#fff" offset="1"/>
  </linearGradient>
  <linearGradient id="ButtonShadow" y2="7.016" gradientUnits="userSpaceOnUse" y1="92.54" gradientTransform="scale(1.0059 .99417)" x2="45.448" x1="45.448">
   <stop offset="0"/>
   <stop stop-opacity=".588" offset="1"/>
  </linearGradient>
 </defs>
 <g transform="translate(-187.24,-59.656)" display="none">
  <path opacity=".9" filter="url(#filter3174)" d="m11 7 37-2 37 2c3.324 0 6 2.676 6 6v73c0 3.324-2.676 6-6 6h-74c-3.324 0-6-2.676-6-6v-73c0-3.324 2.676-6 6-6z" fill="url(#ButtonShadow)"/>
 </g>
 <g transform="translate(-187.24,-59.656)" display="none">
  <rect opacity=".6" transform="matrix(0,-1,1,0,0,4)" rx="2.813" ry="2.813" height="30" filter="url(#filter3806)" width="30" y="56" x="-86"/>
  <rect transform="rotate(-90)" rx="2.813" ry="2.813" height="30" width="30" y="56" x="-88" fill="url(#linearGradient3773)"/>
  <path opacity=".5" fill="url(#linearGradient3788)" d="m58.812 58c-1.558 0-2.812 1.254-2.812 2.812v24.375c0 0.87307 0.41082 1.6412 1.0312 2.1562-0.003-0.053-0.031-0.101-0.031-0.155v-24.375c0-1.559 1.171-2.813 2.625-2.813h22.75c1.454 0 2.625 1.254 2.625 2.812v24.375c0 0.05463-0.02841 0.10241-0.03125 0.15625 0.62-0.514 1.031-1.282 1.031-2.155v-24.375c0-1.559-1.254-2.813-2.812-2.813h-24.375z"/>
  <path opacity=".6" d="m116 63.5v8.75h-5l10 13.75 10-13.75h-5v-8.75h-10z" clip-path="url(#clipPath3823)" transform="translate(-50)" display="inline" filter="url(#filter3831)" fill="url(#linearGradient3812)"/>
  <path display="inline" fill="url(#linearGradient3832)" d="m66 62.5v8.75h-5l10 13.75 10-13.75h-5v-8.75h-10z"/>
 </g>
 <g fill="#404040" transform="matrix(.5 0 0 .5 -1 -1)">
  <g>
   <rect transform="rotate(90)" height="40" width="2" y="-44" x="27"/>
   <rect transform="rotate(90)" height="40" width="2" y="-44" x="23"/>
   <rect transform="rotate(90)" height="40" width="2" y="-44" x="19"/>
   <rect transform="rotate(90)" height="40" width="2" y="-44" x="15"/>
   <rect transform="rotate(90)" height="40" width="2" y="-44" x="31"/>
   <rect transform="rotate(90)" height="40" width="2" y="-44" x="35"/>
   <rect transform="rotate(90)" height="40" width="2" y="-44" x="39"/>
   <rect transform="rotate(90)" height="40" width="2" y="-44" x="11"/>
   <rect transform="rotate(90)" height="40" width="2" y="-44" x="7"/>
  </g>
  <rect y="4" x="23" width="2" height="40"/>
  <rect y="4" x="19" width="2" height="40"/>
  <rect y="4" x="15" width="2" height="40"/>
  <rect y="4" x="11" width="2" height="40"/>
  <rect y="4" x="27" width="2" height="40"/>
  <rect y="4" x="31" width="2" height="40"/>
  <rect y="4" x="35" width="2" height="40"/>
  <rect y="4" x="7" width="2" height="40"/>
  <rect y="4" x="39" width="2" height="40"/>
 </g>
 <rect ry="1.125" rx=".9" transform="matrix(0,-1,-1,0,0,0)" height="18" width="18" y="-20" x="-20" fill="#858a89"/>
 <path opacity=".2" fill="#fff" d="m3.125 2c-0.6232 0-1.125 0.4018-1.125 0.9004v0.5c0-0.4986 0.5018-0.9004 1.125-0.9004h15.75c0.623 0 1.125 0.4018 1.125 0.9004v-0.5c0-0.4986-0.502-0.9004-1.125-0.9004h-15.75z"/>
 <path opacity=".2" d="m2 19.1v0.5c0 0.498 0.5018 0.9 1.125 0.9h15.75c0.623 0 1.125-0.402 1.125-0.9v-0.5c0 0.498-0.502 0.9-1.125 0.9h-15.75c-0.6232 0-1.125-0.402-1.125-0.9z"/>
 <rect rx="1" ry="1" height="14" width="14" y="4" x="4" fill="#d13232"/>
</svg>

<svg xmlns="http://www.w3.org/2000/svg" xmlns:xlink="http://www.w3.org/1999/xlink" width="22" height="22" version="1">
 <defs>
  <clipPath id="clipPath3823">
   <path style="fill:#ffffff" d="m 108.81,58 c -1.56,0 -2.81,1.254 -2.81,2.812 v 24.375 c 0,1.559 1.25,2.813 2.81,2.813 h 24.375 c 1.57,0 2.82,-1.254 2.82,-2.812 V 60.813 c 0,-1.559 -1.25,-2.813 -2.81,-2.813 H 108.82 Z m 7.1875,4.5 h 10 v 8.75 h 5 l -10,13.75 -10,-13.75 h 5 z"/>
  </clipPath>
  <linearGradient id="linearGradient3812" x1="65.263" x2="65.263" y1="64.205" y2="50.069" gradientTransform="matrix(0.625,0,0,0.625,78.5,32.25)" gradientUnits="userSpaceOnUse">
   <stop offset="0"/>
   <stop offset="1" stop-opacity="0"/>
  </linearGradient>
  <filter id="filter3806" style="color-interpolation-filters:sRGB">
   <feGaussianBlur stdDeviation="1.2"/>
  </filter>
  <linearGradient id="linearGradient3788" x1="70" x2="70" y1="54" y2="75.095" gradientTransform="translate(0,4)" gradientUnits="userSpaceOnUse" xlink:href="#linearGradient3737"/>
  <linearGradient id="linearGradient3773" x1="56" x2="88" y1="72" y2="72" gradientTransform="matrix(0.9375,0,0,0.9375,-140.5,3.5)" gradientUnits="userSpaceOnUse">
   <stop offset="0" stop-color="#499119"/>
   <stop offset="1" stop-color="#8fd625"/>
  </linearGradient>
  <linearGradient id="linearGradient3832" x1="65.263" x2="65.263" y1="64.205" y2="50.069" gradientTransform="matrix(0.625,0,0,0.625,28.5,31.25)" gradientUnits="userSpaceOnUse" xlink:href="#linearGradient3737"/>
  <linearGradient id="linearGradient3737">
   <stop offset="0" stop-color="#fff"/>
   <stop offset="1" stop-color="#fff" stop-opacity="0"/>
  </linearGradient>
  <linearGradient id="ButtonShadow" x1="45.448" x2="45.448" y1="92.54" y2="7.016" gradientTransform="scale(1.0059,0.99417)" gradientUnits="userSpaceOnUse">
   <stop offset="0"/>
   <stop offset="1" stop-opacity=".588"/>
  </linearGradient>
 </defs>
 <g style="display:none" display="none" transform="translate(-187.24,-59.656)">
  <path style="opacity:0.9;fill:url(#ButtonShadow);filter:url(#filter3174)" d="M 11,7 48,5 85,7 c 3.324,0 6,2.676 6,6 v 73 c 0,3.324 -2.676,6 -6,6 H 11 C 7.676,92 5,89.324 5,86 V 13 C 5,9.676 7.676,7 11,7 Z"/>
 </g>
 <g style="display:none" display="none" transform="translate(-187.24,-59.656)">
  <rect style="opacity:0.6;filter:url(#filter3806)" width="30" height="30" x="-86" y="56" rx="2.813" ry="2.813" transform="rotate(-90,2,2)"/>
  <rect style="fill:url(#linearGradient3773)" width="30" height="30" x="-88" y="56" rx="2.813" ry="2.813" transform="rotate(-90)"/>
  <path style="opacity:0.5;fill:url(#linearGradient3788)" d="M 58.812,58 C 57.254,58 56,59.254 56,60.812 v 24.375 c 0,0.87307 0.41082,1.6412 1.0312,2.1562 -0.003,-0.053 -0.031,-0.101 -0.031,-0.155 v -24.375 c 0,-1.559 1.171,-2.813 2.625,-2.813 h 22.75 c 1.454,0 2.625,1.254 2.625,2.812 v 24.375 c 0,0.05463 -0.02841,0.10241 -0.03125,0.15625 0.62,-0.514 1.031,-1.282 1.031,-2.155 v -24.375 c 0,-1.559 -1.254,-2.813 -2.812,-2.813 h -24.375 z"/>
  <path style="opacity:0.6;fill:url(#linearGradient3812);filter:url(#filter3831)" d="m 116,63.5 v 8.75 h -5 L 121,86 131,72.25 h -5 V 63.5 Z" clip-path="url(#clipPath3823)" transform="translate(-50)"/>
  <path style="fill:url(#linearGradient3832)" d="m 66,62.5 v 8.75 H 61 L 71,85 81,71.25 H 76 V 62.5 Z"/>
 </g>
 <g transform="translate(-2)">
  <rect style="fill:#8e8e8e" width="1" height="19" x="14" y="-22" transform="rotate(90)"/>
  <rect style="fill:#8e8e8e" width="1" height="19" x="12" y="-22" transform="rotate(90)"/>
  <rect style="fill:#8e8e8e" width="1" height="19" x="10" y="-22" transform="rotate(90)"/>
  <rect style="fill:#8e8e8e" width="1" height="19" x="8" y="-22" transform="rotate(90)"/>
  <rect style="fill:#8e8e8e" width="1" height="19" x="16" y="-22" transform="rotate(90)"/>
  <rect style="fill:#8e8e8e" width="1" height="19" x="18" y="-22" transform="rotate(90)"/>
  <rect style="fill:#8e8e8e" width="1" height="19" x="6" y="-22" transform="rotate(90)"/>
  <rect style="fill:#8e8e8e" width="1" height="19" x="4" y="-22" transform="rotate(90)"/>
  <rect style="fill:#8e8e8e" width="1" height="19" x="12" y="2"/>
  <rect style="fill:#8e8e8e" width="1" height="19" x="10" y="2"/>
  <rect style="fill:#8e8e8e" width="1" height="19" x="8" y="2"/>
  <rect style="fill:#8e8e8e" width="1" height="19" x="6" y="2"/>
  <rect style="fill:#8e8e8e" width="1" height="19" x="14" y="2"/>
  <rect style="fill:#8e8e8e" width="1" height="19" x="16" y="2"/>
  <rect style="fill:#8e8e8e" width="1" height="19" x="18" y="2"/>
  <rect style="fill:#8e8e8e" width="1" height="19" x="4" y="2"/>
  <rect style="fill:#8e8e8e" width="1" height="19" x="20" y="2"/>
  <rect style="opacity:0.2" width="17" height="17" x="-20.5" y="-21" rx=".85" ry="1.063" transform="matrix(0,-1,-1,0,0,0)"/>
  <rect style="fill:#b7b7b7" width="17" height="17" x="-20" y="-21" rx=".85" ry="1.063" transform="matrix(0,-1,-1,0,0,0)"/>
  <rect style="fill:#d13232" width="13" height="13" x="6" y="5" rx=".929" ry=".929"/>
  <path style="opacity:0.2;fill:#ffffff" d="M 5.0625,3 C 4.473875,3 4,3.3787094 4,3.8496094 v 0.5 C 4,3.8787094 4.473875,3.5 5.0625,3.5 h 14.875 C 20.526125,3.5 21,3.8787094 21,4.3496094 v -0.5 C 21,3.3787094 20.526125,3 19.9375,3 Z"/>
 </g>
</svg>
